X: 13
T: Fisher's
R: hornpipe
M: 4/4
L: 1/8
K: Dmaj
|: dAFD GBAG | FEDF GBAG | FDFD GEGE | FDFD EABc |
dAFD GBAG | FAFA GBAG | FdBg fdec | d2 d2 d4 :|
|: ecAc ecge | fdAd fdaf | ecAc ecge | edcB A4 |
BGDG BGdB | AFDF AFdA | BGdB AFGE | D2 D2 D4 :|


Tune 872	Setting 1322

